X: 51
T:Donegal Reel (#247), The
M:4/4
L:1/8
S:Pat. Dunne manuscript
R:Reel
K:D
A,|D2 DE FEFA|dFAF BFAF|E2 EF GFGA|(3Bcd AF EGFE|
D2 DE FEFA|dFAF ABde|(3fga ec dABG|(3FGF EF D2||
A2|defg afdf|afdf a2 (3agf|edef gfed|edef g2 (3gfe|
defg afdf|afdf abag|(3fgf (3efe dABG|(3FGF EF D2||

